X:0641
T:The 6 Following Tunes are taken from Oscar & Malvina.
M:6/8
L:1/8
Q:3/8=72
I: :: :: ::
N:next to last bar printed |f3/ed dAB|
Z:Jack Campin * www.campin.me.uk * 2009
K:D
d3  d3 |dcB       A3 |dcB  AGF|F/G/AF    E2D|
e3  e3 |fed       cag|fed  cAB|d>ef/g/   e2d:|
fdd eAA|fed       eAA|gee  fBB|ga/g/f/e/ fBB |
fdd eAA|fg/f/e/d/ eag|fed  dAB|d>ef/g/   e2d:|
dfa dfa|dfa       agf|egb  egb|egb       bge |
dfa dfa|dfa       agf|f>ed dAB|d>ef/g/   e2d:|
<end>
<start>
